svg/u1f608.svg

<svg viewBox="0 0 128 128" xmlns="http://www.w3.org/2000/svg">
  <g id="faces">
    <g id="devil-happy-face">
      <path d="M8.88,7.38c9.23,9.39,21.36,17,32.89,16.67c1.1-0.03,2.02,0.84,2.05,1.94 c0.01,0.32-0.06,0.63-0.19,0.92c-5.07,10.41-16.22,20.81-26.4,19.39c-0.48-0.06-0.92-0.31-1.23-0.68 c-6.64-7.94-11.3-23.81-10.55-37C5.53,7.52,6.5,6.69,7.6,6.78C8.08,6.82,8.54,7.03,8.88,7.38z" fill="#792D85"/>
      <path d="M119.07,7.63C109.84,17,97.71,24.6,86.18,24.3c-1.1-0.03-2.02,0.84-2.05,1.94 c-0.01,0.32,0.06,0.63,0.19,0.92c5.07,10.41,16.22,20.81,26.4,19.39c0.47-0.07,0.91-0.31,1.21-0.68 c6.63-7.94,11.29-23.81,10.55-37c-0.09-1.1-1.06-1.92-2.16-1.82C119.85,7.09,119.4,7.29,119.07,7.63z" fill="#792D85"/>
      <radialGradient id="face_1_" cx="63.6" cy="2590.2251" gradientTransform="matrix(1 0 0 1 0 -2522)" gradientUnits="userSpaceOnUse" r="51.5312">
        <stop offset="0" stop-color="#FC01FC"/>
        <stop offset="0" stop-color="#FF00FF"/>
        <stop offset="0.86" stop-color="#DF0BE2"/>
        <stop offset="1" stop-color="#8E2698"/>
        <stop offset="1" stop-color="#792D85"/>
      </radialGradient>
      <path id="face" d="M63.6,118.8c-25.24,0-52.47-15.83-52.47-50.57S38.36,17.65,63.6,17.65 c14,0,27,4.62,36.55,13c10.4,9.23,15.92,22.26,15.92,37.55s-5.52,28.22-15.92,37.45C90.56,114.1,77.53,118.8,63.6,118.8z" fill="url(#face_1_)"/>
    </g>
    <path d="M107.22,38.33c4.95,8.23,7.49,17.69,7.32,27.29c0,15.26-5.51,28.17-15.89,37.38 c-9.57,8.4-22.57,13.09-36.48,13.09c-16.3,0-33.43-6.63-43.49-20.71c9.71,16,28,23.42,45.3,23.42c13.9,0,26.9-4.69,36.47-13.09 c10.39-9.21,15.89-22.12,15.89-37.38C116.34,56.83,113.21,46.61,107.22,38.33z" fill="#792D85"/>
  </g>
  <g id="facial_expressions">
    <g id="devil-happy-face-2">
      <path id="mouth" d="M81.27,87.54c1.21-0.02,2.32,0.64,2.9,1.7c0.7,1.5,0.52,3.26-0.47,4.58 c-2.22,3.37-9.52,8.72-19.7,8.72s-17.48-5.35-19.69-8.72c-0.99-1.32-1.17-3.08-0.47-4.57c0.57-1.07,1.69-1.73,2.9-1.71 c0.41,0,0.82,0.06,1.21,0.19c5.2,1.57,10.61,2.35,16.05,2.32c5.42,0.03,10.81-0.75,16-2.32c0.39-0.13,0.8-0.19,1.21-0.19H81.27z" fill="#422B0D"/>
    </g>
    <g id="eyes">
      <path d="M58.14,68.82C55.9,66,46.67,60.58,43.34,59c-1.24-0.57-2.53-1.03-3.85-1.37 c-0.24-0.07-0.5-0.1-0.75-0.1c-1.33,0.03-2.47,0.98-2.74,2.29c-0.31,1.36,0.39,2.76,1.67,3.32c1.57,0.77,4.31,2.23,7.15,3.84 C42.45,68.39,41,70.95,41,73.71v1.46c0,4.14,3.36,7.5,7.5,7.5s7.5-3.36,7.5-7.5v-1.46c0-0.06,0-0.11,0-0.17 c1.07-0.07,2.03-0.71,2.5-1.67C58.99,70.87,58.85,69.68,58.14,68.82z" fill="#422B0D"/>
      <path d="M93.52,59.82c-0.28-1.32-1.44-2.26-2.79-2.27c-0.25,0-0.51,0.03-0.75,0.1 c-1.32,0.33-2.61,0.79-3.85,1.35c-3.33,1.56-12.56,7-14.8,9.8c-0.71,0.87-0.83,2.07-0.33,3.07c0.48,0.97,1.43,1.6,2.51,1.67 c0,0.06,0,0.11,0,0.17v1.46c0,4.14,3.36,7.5,7.5,7.5s7.5-3.36,7.5-7.5v-1.46c0-2.75-1.45-5.3-3.81-6.71 c2.84-1.61,5.58-3.07,7.15-3.84C93.14,62.6,93.85,61.19,93.52,59.82z" fill="#422B0D"/>
    </g>
    <g id="peepers">
      <path d="M48.12,68.45L48.12,68.45c-1.42-0.68-3.13-0.08-3.82,1.34c-0.53,1.11-0.29,2.44,0.6,3.3l0,0 c1.42,0.68,3.13,0.08,3.82-1.34C49.25,70.64,49.01,69.31,48.12,68.45z" fill="#896024"/>
    </g>
    <g id="peepers-2">
      <path d="M80.63,68.45L80.63,68.45c-1.42-0.68-3.13-0.08-3.82,1.34c-0.53,1.11-0.29,2.44,0.6,3.3l0,0 c1.42,0.68,3.13,0.08,3.82-1.34C81.76,70.64,81.52,69.31,80.63,68.45z" fill="#896024"/>
    </g>
  </g>
</svg>

<svg viewBox="0 0 128 128" xmlns="http://www.w3.org/2000/svg">
  <defs>
    <radialGradient id="face_1_" cx="63.6" cy="68.2251" gradientUnits="userSpaceOnUse" r="51.5312">
      <stop offset="0" stop-color="#FC01FC"/>
      <stop offset="0" stop-color="#FF00FF"/>
      <stop offset="0.86" stop-color="#DF0BE2"/>
      <stop offset="1" stop-color="#8E2698"/>
      <stop offset="1" stop-color="#792D85"/>
    </radialGradient>
  </defs>
  <path d="M8.88,7.38 C18.11,16.77 30.24,24.38 41.77,24.05 C42.87,24.02 43.79,24.89 43.82,25.99 C43.83,26.31 43.76,26.62 43.63,26.91 C38.56,37.32 27.41,47.72 17.23,46.3 C16.75,46.24 16.31,45.99 16,45.62 C9.36,37.68 4.7,21.81 5.45,8.62 C5.53,7.52 6.5,6.69 7.6,6.78 C8.08,6.82 8.54,7.03 8.88,7.38 Z" fill="#792D85"/>
  <path d="M119.07,7.63 C109.84,17 97.71,24.6 86.18,24.3 C85.08,24.27 84.16,25.14 84.13,26.24 C84.12,26.56 84.19,26.87 84.32,27.16 C89.39,37.57 100.54,47.97 110.72,46.55 C111.19,46.48 111.63,46.24 111.93,45.87 C118.56,37.93 123.22,22.06 122.48,8.87 C122.39,7.77 121.42,6.95 120.32,7.05 C119.85,7.09 119.4,7.29 119.07,7.63 Z" fill="#792D85"/>
  <path id="face" d="M63.6,118.8 C38.36,118.8 11.13,102.97 11.13,68.23 C11.13,33.49 38.36,17.65 63.6,17.65 C77.6,17.65 90.6,22.27 100.15,30.65 C110.55,39.88 116.07,52.91 116.07,68.2 C116.07,83.49 110.55,96.42 100.15,105.65 C90.56,114.1 77.53,118.8 63.6,118.8 Z" fill="url(#face_1_)"/>
  <path d="M107.22,38.33 C112.17,46.56 114.71,56.02 114.54,65.62 C114.54,80.88 109.03,93.79 98.65,103 C89.08,111.4 76.08,116.09 62.17,116.09 C45.87,116.09 28.74,109.46 18.68,95.38 C28.39,111.38 46.68,118.8 63.98,118.8 C77.88,118.8 90.88,114.11 100.45,105.71 C110.84,96.5 116.34,83.59 116.34,68.33 C116.34,56.83 113.21,46.61 107.22,38.33 Z" fill="#792D85"/>
  <path id="mouth" d="M81.27,87.54 C82.48,87.52 83.59,88.18 84.17,89.24 C84.87,90.74 84.69,92.5 83.7,93.82 C81.48,97.19 74.18,102.54 64,102.54 C53.82,102.54 46.52,97.19 44.31,93.82 C43.32,92.5 43.14,90.74 43.84,89.25 C44.41,88.18 45.53,87.52 46.74,87.54 C47.15,87.54 47.56,87.6 47.95,87.73 C53.15,89.3 58.56,90.08 64,90.05 C69.42,90.08 74.81,89.3 80,87.73 C80.39,87.6 80.8,87.54 81.21,87.54 L81.27,87.54 Z" fill="#422B0D"/>
  <path d="M58.14,68.82 C55.9,66 46.67,60.58 43.34,59 C42.1,58.43 40.81,57.97 39.49,57.63 C39.25,57.56 38.99,57.53 38.74,57.53 C37.41,57.56 36.27,58.51 36,59.82 C35.69,61.18 36.39,62.58 37.67,63.14 C39.24,63.91 41.98,65.37 44.82,66.98 C42.45,68.39 41,70.95 41,73.71 L41,75.17 C41,79.31 44.36,82.67 48.5,82.67 C52.64,82.67 56,79.31 56,75.17 L56,73.71 C56,73.65 56,73.6 56,73.54 C57.07,73.47 58.03,72.83 58.5,71.87 C58.99,70.87 58.85,69.68 58.14,68.82 Z" fill="#422B0D"/>
  <path d="M93.52,59.82 C93.24,58.5 92.08,57.56 90.73,57.55 C90.48,57.55 90.22,57.58 89.98,57.65 C88.66,57.98 87.37,58.44 86.13,59 C82.8,60.56 73.57,66 71.33,68.8 C70.62,69.67 70.5,70.87 71,71.87 C71.48,72.84 72.43,73.47 73.51,73.54 C73.51,73.6 73.51,73.65 73.51,73.71 L73.51,75.17 C73.51,79.31 76.87,82.67 81.01,82.67 C85.15,82.67 88.51,79.31 88.51,75.17 L88.51,73.71 C88.51,70.96 87.06,68.41 84.7,67 C87.54,65.39 90.28,63.93 91.85,63.16 C93.14,62.6 93.85,61.19 93.52,59.82 Z" fill="#422B0D"/>
  <path d="M48.12,68.45 L48.12,68.45 C46.7,67.77 44.99,68.37 44.3,69.79 C43.77,70.9 44.01,72.23 44.9,73.09 L44.9,73.09 C46.32,73.77 48.03,73.17 48.72,71.75 C49.25,70.64 49.01,69.31 48.12,68.45 Z" fill="#896024"/>
  <path d="M80.63,68.45 L80.63,68.45 C79.21,67.77 77.5,68.37 76.81,69.79 C76.28,70.9 76.52,72.23 77.41,73.09 L77.41,73.09 C78.83,73.77 80.54,73.17 81.23,71.75 C81.76,70.64 81.52,69.31 80.63,68.45 Z" fill="#896024"/>
</svg>
